assets/icons/qvision/outlet.svg

<svg xmlns="http://www.w3.org/2000/svg" enable-background="new 0 0 24 24" height="24" viewBox="0 0 24 24" width="24"><rect fill="none" height="24" width="24"/><path d="M12,2C6.48,2,2,6.48,2,12c0,5.52,4.48,10,10,10s10-4.48,10-10C22,6.48,17.52,2,12,2z M9,12c-0.55,0-1-0.45-1-1V8 c0-0.55,0.45-1,1-1s1,0.45,1,1v3C10,11.55,9.55,12,9,12z M14,18h-4v-2c0-1.1,0.9-2,2-2c1.1,0,2,0.9,2,2V18z M16,11 c0,0.55-0.45,1-1,1c-0.55,0-1-0.45-1-1V8c0-0.55,0.45-1,1-1c0.55,0,1,0.45,1,1V11z"/></svg>

<svg width="24" height="24" viewBox="0 0 24 24" fill="none" xmlns="http://www.w3.org/2000/svg">
<g clip-path="url(#clip0_147_4499)">
<path d="M12 2C6.48 2 2 6.48 2 12C2 17.52 6.48 22 12 22C17.52 22 22 17.52 22 12C22 6.48 17.52 2 12 2ZM9 12C8.45 12 8 11.55 8 11V8C8 7.45 8.45 7 9 7C9.55 7 10 7.45 10 8V11C10 11.55 9.55 12 9 12ZM14 18H10V16C10 14.9 10.9 14 12 14C13.1 14 14 14.9 14 16V18ZM16 11C16 11.55 15.55 12 15 12C14.45 12 14 11.55 14 11V8C14 7.45 14.45 7 15 7C15.55 7 16 7.45 16 8V11Z" fill="#323232"/>
</g>
<defs>
<clipPath id="clip0_147_4499">
<rect width="24" height="24" fill="white"/>
</clipPath>
</defs>
</svg>
